launcher/android/assets/skins/day/svg/baseMapOnlineVector.svg

<svg enable-background="new 0 0 256.00 255.33" height="255.333" viewBox="0 0 256 255.33" width="256" xmlns="http://www.w3.org/2000/svg" xmlns:xlink="http://www.w3.org/1999/xlink"><linearGradient id="a" gradientTransform="matrix(-.62931956366 -.777146631463 .777146631463 -.62931956366 .636789259852 2.080885312533)" gradientUnits="objectBoundingBox" x1=".814661" x2="1.81466" y1=".888576" y2=".888576"><stop offset="0" stop-color="#425e7e"/><stop offset=".893501" stop-color="#70acf1"/><stop offset="1" stop-color="#90c5f1"/></linearGradient><radialGradient id="b" cx="107.065" cy="83.4467" gradientUnits="userSpaceOnUse" r="68.6273"><stop offset=".125" stop-color="#90f19d"/><stop offset=".323276" stop-color="#8cf186"/><stop offset=".323276" stop-color="#89f170"/><stop offset=".50431" stop-color="#7edf69"/><stop offset="1" stop-color="#447e42"/></radialGradient><linearGradient id="c"><stop offset="0" stop-color="#7edf69"/><stop offset="1" stop-color="#447e42"/></linearGradient><radialGradient id="d" cx="116.754" cy="135.399" gradientUnits="userSpaceOnUse" r="40.6863" xlink:href="#c"/><radialGradient id="e" cx="162.71" cy="83.4385" gradientUnits="userSpaceOnUse" r="24.1421" xlink:href="#c"/><g stroke-linejoin="round"><path d="m129.368 25.6025c55.229 0 100 44.7705 100 99.9995 0 55.227-44.772 99.999-100 99.999-55.2281 0-99.9997-44.772-99.9997-99.999 0-55.229 44.7708-99.9995 99.9997-99.9995z" fill="url(#a)" stroke-width=".2"/><path d="m64.9087 56.731v2.451l-1.4706.9805-12.7451-.4903-10.7843 15.6862v3.4315l4.4118 3.9215-.4902 4.4116 1.9608 3.4316 3.9215 3.4312.9804 16.6662 3.9216 4.412 13.2352 15.196 10.7843 7.843 11.7647 3.922 4.902 2.451.9804-8.333-6.3726-4.902-5.8823-1.961-1.4706-5.882h9.3137l2.9412 5.392 4.4117 3.921 6.3727 2.451 13.235-3.431 1.961-5.392h-12.255l-4.902-6.863-.49-4.902 17.157-20.0979 6.372-5.3922-8.333-14.7058 4.902-6.3726-4.412-8.8235-6.372-4.9018-1.961-5.3924 2.941-5.3921 4.412-4.9019 1.961 9.8038 7.843 2.451 3.431 4.902 2.451 12.7451 3.922 5.8824 2.941 3.4313 6.862-4.9021 1.961-3.4312 17.157.9804 1.471 3.9216 6.372-5.8824-2.451-4.4117-5.882-1.4707-3.922-3.4313-.49-5.8823 3.922-2.4511.98-17.6469-7.353-5.8824-6.372-1.9608h-11.275l-5.882 2.9412-3.922 3.9215-4.902-.4901-3.431-5.3922-1.961-3.4313-6.863-.4902-3.921 1.9607-3.922 2.9412-9.3134 1.4706-.9804 2.4509 1.4706 4.4119-4.4118.9802-1.9608-2.941-8.3333-.9805-2.451 4.4118-.4902 5.8823v2.451l-2.451 1.4706h-4.4117l-1.4706-5.3921-2.9412-.4902-2.9411 3.4313-4.902 4.4117 1.4706 7.353zm24.6399-10.5473-3.4313-2.9411 4.4117.9802h4.4118l5.8822.4902.49 6.3726 1.961 1.4706 3.431 5.3922 2.942 2.451-.491 5.8823-4.411.9804-3.432-1.9608-1.9605-4.4118-3.4313-5.3921-5.3922-.9804v-2.451zm-3.9215 34.8037 2.451-5.3921 6.3725-1.9607 4.9019 4.902-.9803 6.3726-3.4314 4.9018-5.8824-1.9608-3.9215-4.4117z" fill="url(#b)" stroke="#006432" stroke-width="2"/><path d="m113.078 141.772h-8.333l-5.8826 7.353-2.451 8.333-.4902 5.392 10.7838 7.353 5.393 3.922 4.902 9.804-10.785.98-.98 7.843-.49 9.804 2.451 11.274 1.96 2.451 16.667 3.922 26.471-9.314z" fill="url(#d)" stroke="#006432" stroke-width="2"/><path d="m172.392 87.2374.49-5.8823 5.392-3.6764 2.451 1.4706 11.765 13.2353-2.696-11.2746-1.471-3.1862 1.961-3.9215 4.657-3.9216 4.902-6.1275-.736-4.6568 3.187-2.9411 4.656 1.7156 10.785 14.951-9.804 13.9707-14.951 8.8233z" fill="url(#e)" stroke="#006432" stroke-width="2"/><g stroke-width=".2"><path d="m132.896 135.8-34.3442 97.94h-25.4688l-33.9293-97.94h24.2008l20.7905 68.164c1.1076 3.688 1.778 6.945 2.0112 9.772h.4154c.3352-3.046 1.0567-6.39 2.1643-10.034l20.6591-67.902z"/><path d="m176.892 145.283h-13.992v39.876h-11.193v-39.876h-13.991v-9.095h39.176z"/><path d="m239.154 185.159h-11.193v-29.306c0-3.163.142-6.657.426-10.483h-.273c-.569 3.01-1.083 5.174-1.542 6.493l-11.477 33.296h-9.018l-11.685-32.957c-.321-.889-.834-3.166-1.541-6.832h-.306c.291 4.832.437 9.069.437 12.713v27.076h-9.794v-48.971h16.014l10.001 29.033c.802 2.317 1.385 4.649 1.749 6.995h.208c.612-2.711 1.261-5.068 1.946-7.072l10.001-28.956h16.047z"/></g></g></svg>

﻿<?xml version="1.0" encoding="utf-8"?>
<!DOCTYPE svg PUBLIC "-//W3C//DTD SVG 1.1//EN" "http://www.w3.org/Graphics/SVG/1.1/DTD/svg11.dtd">
<svg xmlns="http://www.w3.org/2000/svg" xmlns:xlink="http://www.w3.org/1999/xlink" version="1.1" baseProfile="full" width="256" height="255.333" viewBox="0 0 256.00 255.33" enable-background="new 0 0 256.00 255.33" xml:space="preserve">
	<g>
		<linearGradient id="SVGID_Fill1_" gradientUnits="objectBoundingBox" x1="0.814661" y1="0.888576" x2="1.81466" y2="0.888576" gradientTransform="rotate(231.000061 0.814661 0.888576)">
			<stop offset="0" stop-color="#425E7E" stop-opacity="1"/>
			<stop offset="0.893501" stop-color="#70ACF1" stop-opacity="1"/>
			<stop offset="1" stop-color="#90C5F1" stop-opacity="1"/>
		</linearGradient>
		<path fill="url(#SVGID_Fill1_)" stroke-width="0.2" stroke-linejoin="round" d="M 129.368,25.6025C 184.597,25.6025 229.368,70.373 229.368,125.602C 229.368,180.829 184.596,225.601 129.368,225.601C 74.1399,225.601 29.3683,180.829 29.3683,125.602C 29.3683,70.373 74.1391,25.6025 129.368,25.6025 Z "/>
		<g>
			<radialGradient id="SVGID_Fill2_" cx="107.065" cy="83.4467" r="68.6273" gradientUnits="userSpaceOnUse">
				<stop offset="0.125" stop-color="#90F19D" stop-opacity="1"/>
				<stop offset="0.323276" stop-color="#8CF186" stop-opacity="1"/>
				<stop offset="0.323276" stop-color="#89F170" stop-opacity="1"/>
				<stop offset="0.50431" stop-color="#7EDF69" stop-opacity="1"/>
				<stop offset="1" stop-color="#447E42" stop-opacity="1"/>
			</radialGradient>
			<path fill="url(#SVGID_Fill2_)" stroke-width="2" stroke-linejoin="round" stroke="#006432" stroke-opacity="1" d="M 64.9087,56.731L 64.9087,59.182L 63.4381,60.1625L 50.693,59.6722L 39.9087,75.3584L 39.9087,78.7899L 44.3205,82.7114L 43.8303,87.123L 45.7911,90.5546L 49.7126,93.9858L 50.693,110.652L 54.6146,115.064L 67.8498,130.26L 78.6341,138.103L 90.3988,142.025L 95.3008,144.476L 96.2812,136.143L 89.9086,131.241L 84.0263,129.28L 82.5557,123.398L 91.8694,123.398L 94.8106,128.79L 99.2223,132.711L 105.595,135.162L 118.83,131.731L 120.791,126.339L 108.536,126.339L 103.634,119.476L 103.144,114.574L 120.301,94.4761L 126.673,89.0839L 118.34,74.3781L 123.242,68.0055L 118.83,59.182L 112.458,54.2802L 110.497,48.8878L 113.438,43.4957L 117.85,38.5938L 119.811,48.3976L 127.654,50.8486L 131.085,55.7506L 133.536,68.4957L 137.458,74.3781L 140.399,77.8094L 147.261,72.9073L 149.222,69.4761L 166.379,70.4565L 167.85,74.3781L 174.222,68.4957L 171.771,64.084L 165.889,62.6133L 161.967,59.182L 161.477,53.2997L 165.399,50.8486L 166.379,33.2017L 159.026,27.3193L 152.654,25.3585L 141.379,25.3585L 135.497,28.2997L 131.575,32.2212L 126.673,31.7311L 123.242,26.3389L 121.281,22.9076L 114.418,22.4174L 110.497,24.3781L 106.575,27.3193L 97.2616,28.7899L 96.2812,31.2408L 97.7518,35.6527L 93.34,36.6329L 91.3792,33.6919L 83.0459,32.7114L 80.5949,37.1232L 80.1047,43.0055L 80.1047,45.4565L 77.6537,46.9271L 73.242,46.9271L 71.7714,41.535L 68.8302,41.0448L 65.8891,44.4761L 60.9871,48.8878L 62.4577,56.2408L 64.9087,56.731 Z M 89.5486,46.1837L 86.1173,43.2426L 90.529,44.2228L 94.9408,44.2228L 100.823,44.713L 101.313,51.0856L 103.274,52.5562L 106.705,57.9484L 109.647,60.3994L 109.156,66.2817L 104.745,67.2621L 101.313,65.3013L 99.3525,60.8895L 95.9212,55.4974L 90.529,54.517L 90.529,52.066L 89.5486,46.1837 Z M 85.6271,80.9874L 88.0781,75.5953L 94.4506,73.6346L 99.3525,78.5366L 98.3722,84.9092L 94.9408,89.811L 89.0584,87.8502L 85.1369,83.4385L 85.6271,80.9874 Z "/>
			<radialGradient id="SVGID_Fill3_" cx="116.754" cy="135.399" r="40.6863" gradientUnits="userSpaceOnUse">
				<stop offset="0" stop-color="#7EDF69" stop-opacity="1"/>
				<stop offset="1" stop-color="#447E42" stop-opacity="1"/>
			</radialGradient>
			<path fill="url(#SVGID_Fill3_)" stroke-width="2" stroke-linejoin="round" stroke="#006432" stroke-opacity="1" d="M 113.078,141.772L 104.745,141.772L 98.8624,149.125L 96.4114,157.458L 95.9212,162.85L 106.705,170.203L 112.098,174.125L 117,183.929L 106.215,184.909L 105.235,192.752L 104.745,202.556L 107.196,213.83L 109.156,216.281L 125.823,220.203L 152.294,210.889L 113.078,141.772 Z "/>
			<radialGradient id="SVGID_Fill4_" cx="162.71" cy="83.4385" r="24.1421" gradientUnits="userSpaceOnUse">
				<stop offset="0" stop-color="#7EDF69" stop-opacity="1"/>
				<stop offset="1" stop-color="#447E42" stop-opacity="1"/>
			</radialGradient>
			<path fill="url(#SVGID_Fill4_)" stroke-width="2" stroke-linejoin="round" stroke="#006432" stroke-opacity="1" d="M 172.392,87.2374L 172.882,81.3551L 178.274,77.6787L 180.725,79.1493L 192.49,92.3846L 189.794,81.11L 188.323,77.9238L 190.284,74.0023L 194.941,70.0807L 199.843,63.9532L 199.107,59.2964L 202.294,56.3553L 206.95,58.0709L 217.735,73.0219L 207.931,86.9926L 192.98,95.8159L 172.392,87.2374 Z "/>
		</g>
	</g>
	<g>
		<path fill="#000000" fill-opacity="1" stroke-width="0.2" stroke-linejoin="round" d="M 132.896,135.8L 98.5518,233.74L 73.083,233.74L 39.1537,135.8L 63.3545,135.8L 84.145,203.964C 85.2526,207.652 85.923,210.909 86.1562,213.736L 86.5716,213.736C 86.9068,210.69 87.6283,207.346 88.7359,203.702L 109.395,135.8L 132.896,135.8 Z "/>
	</g>
	<g>
		<path fill="#000000" fill-opacity="1" stroke-width="0.2" stroke-linejoin="round" d="M 176.892,145.283L 162.9,145.283L 162.9,185.159L 151.707,185.159L 151.707,145.283L 137.716,145.283L 137.716,136.188L 176.892,136.188L 176.892,145.283 Z "/>
		<path fill="#000000" fill-opacity="1" stroke-width="0.2" stroke-linejoin="round" d="M 239.154,185.159L 227.961,185.159L 227.961,155.853C 227.961,152.69 228.103,149.196 228.387,145.37L 228.114,145.37C 227.545,148.38 227.031,150.544 226.572,151.863L 215.095,185.159L 206.077,185.159L 194.392,152.202C 194.071,151.313 193.558,149.036 192.851,145.37L 192.545,145.37C 192.836,150.202 192.982,154.439 192.982,158.083L 192.982,185.159L 183.188,185.159L 183.188,136.188L 199.202,136.188L 209.203,165.221C 210.005,167.538 210.588,169.87 210.952,172.216L 211.16,172.216C 211.772,169.505 212.421,167.148 213.106,165.144L 223.107,136.188L 239.154,136.188L 239.154,185.159 Z "/>
	</g>
</svg>
